resources/images/INSTINCT_Logo.svg

<?xml version="1.0" encoding="UTF-8" standalone="no"?>
<svg
   xmlns:dc="http://purl.org/dc/elements/1.1/"
   xmlns:cc="http://creativecommons.org/ns#"
   xmlns:rdf="http://www.w3.org/1999/02/22-rdf-syntax-ns#"
   xmlns:svg="http://www.w3.org/2000/svg"
   xmlns="http://www.w3.org/2000/svg"
   xmlns:sodipodi="http://sodipodi.sourceforge.net/DTD/sodipodi-0.dtd"
   xmlns:inkscape="http://www.inkscape.org/namespaces/inkscape"
   viewBox="0 0 169.12131 233.20595"
   version="1.1"
   id="svg15"
   sodipodi:docname="INSTINCT_Logo.svg"
   width="169.12131"
   height="233.20595"
   inkscape:version="1.0.2 (e86c870879, 2021-01-15)"
   inkscape:export-filename="/home/topas/Downloads/INSTINCT_Logo_Text.png"
   inkscape:export-xdpi="96"
   inkscape:export-ydpi="96">
  <metadata
     id="metadata21">
    <rdf:RDF>
      <cc:Work
         rdf:about="">
        <dc:format>image/svg+xml</dc:format>
        <dc:type
           rdf:resource="http://purl.org/dc/dcmitype/StillImage" />
        <dc:title></dc:title>
      </cc:Work>
    </rdf:RDF>
  </metadata>
  <defs
     id="defs19">
    <rect
       x="151.3047"
       y="68.991425"
       width="91.821152"
       height="58.0028"
       id="rect25" />
  </defs>
  <sodipodi:namedview
     pagecolor="#ffffff"
     bordercolor="#666666"
     borderopacity="1"
     objecttolerance="10"
     gridtolerance="10"
     guidetolerance="10"
     inkscape:pageopacity="0"
     inkscape:pageshadow="2"
     inkscape:window-width="1920"
     inkscape:window-height="1061"
     id="namedview17"
     showgrid="false"
     fit-margin-top="10"
     fit-margin-left="10"
     fit-margin-right="10"
     fit-margin-bottom="10"
     inkscape:zoom="2.8249158"
     inkscape:cx="116.17154"
     inkscape:cy="118.64226"
     inkscape:window-x="1920"
     inkscape:window-y="19"
     inkscape:window-maximized="0"
     inkscape:current-layer="svg15"
     inkscape:document-rotation="0" />
  <ellipse
     style="opacity:1;fill:#000000;fill-opacity:1"
     cx="69.214355"
     cy="216.16194"
     rx="48.716"
     ry="7.0440001"
     id="ellipse835" />
  <g
     id="g30"
     transform="translate(0,-7.9294227)">
    <path
       id="circle841"
       style="fill:#0071aa;fill-opacity:1;stroke-width:1.68412"
       d="M 69.935547,60.789062 A 59.934803,60.075447 0 0 0 10,120.86328 59.934803,60.075447 0 0 0 69.935547,180.93945 59.934803,60.075447 0 0 0 129.86914,120.86328 59.934803,60.075447 0 0 0 69.935547,60.789062 Z M 69.375,83.619141 a 38.979,38.312 0 0 1 0.06641,0 38.979,38.312 0 0 1 38.97851,38.310549 38.979,38.312 0 0 1 -38.97851,38.3125 A 38.979,38.312 0 0 1 30.462891,121.92969 38.979,38.312 0 0 1 69.375,83.619141 Z" />
    <path
       style="fill:#0071aa;fill-opacity:1;stroke:#0071aa;stroke-width:0.884596;paint-order:stroke"
       d="M 22.152797,156.38055 69.240753,221.67873 118.52201,155.2914"
       id="path843" />
  </g>
  <path
     id="path17"
     style="fill-opacity:1"
     d="m 104.02344,10.004171 c -1.7359,-0.02107 -2.21143,0.0381 -2.19922,0.167968 0.0212,0.21577 1.89752,2.427191 3.82617,4.509766 2.1264,2.294712 9.18717,10.257663 9.64063,10.871094 0.54549,0.739336 0.7279,6.727144 0.71679,23.46289 -0.001,2.893307 0.0885,4.403474 0.26367,4.457032 0.21654,0.06528 6.24542,-5.569863 13.99219,-13.078125 0.73454,-0.712731 3.90359,-3.745617 7.04492,-6.740235 3.1412,-2.996451 5.9838,-5.725341 6.31641,-6.064453 0.33262,-0.339112 1.37052,-1.338389 2.30664,-2.216797 3.51325,-3.299756 7.54104,-7.14161 7.65625,-7.304687 0.0632,-0.093 1.40793,-1.388513 2.98633,-2.880859 3.746,-3.543207 3.89352,-3.380121 -3.19531,-3.5625 -1.64765,-0.04222 -3.99214,-0.114113 -5.20899,-0.158204 -5.14273,-0.189487 -10.20057,-0.363863 -12.63476,-0.433593 -3.4733,-0.100966 -7.29603,-0.225433 -10.16016,-0.332032 -1.28896,-0.04806 -3.63304,-0.124212 -5.20898,-0.167968 -1.57607,-0.04559 -4.44749,-0.143932 -6.38282,-0.216797 -5.02771,-0.190487 -8.02387,-0.291428 -9.75976,-0.3125 z m 6.17578,2.929687 42.73828,1.53711 -31.91016,9.537109 z" />
  <g
     transform="matrix(0.315494,0,0,0.365575,-350.42115,87.452592)"
     fill="#ef7524"
     id="g15-0"
     style="mix-blend-mode:normal;fill:#ef7524;fill-opacity:1">
    <path
       d="m 1455.732,-163.381 c -3.066,0.497 -7.818,1.366 -9.83,1.861 -13.502,3.323 -22.389,6.859 -27.291,9.019 -0.44,0.193 -3.05,1.28 -5.8,2.413 -2.75,1.134 -6.17,2.6 -7.599,3.259 -1.431,0.658 -4.221,1.912 -6.201,2.786 -3.251,1.435 -17.022,8.413 -18,9.12 -0.22,0.159 -1.569,0.924 -3,1.7 -6.547,3.551 -8.576,4.697 -10.799,6.103 -9.715,6.139 -12.911,8.198 -14.6,9.412 -1.1,0.791 -4.04,2.834 -6.533,4.542 -5.214,3.572 -17.339,13.217 -21.462,17.072 -1.543,1.443 -3.615,3.325 -4.605,4.183 -4.209,3.648 -21.881,21.69 -25.068,25.594 -5.759,7.053 -16.932,22.394 -16.932,23.246 0,0.16 -0.299,0.621 -0.664,1.025 -0.366,0.404 -0.861,1.073 -1.1,1.486 -0.24,0.414 -1.177,1.987 -2.082,3.497 -2.97,4.955 -3.762,6.402 -7.632,13.946 -1.17,2.281 -1.656,3.309 -4.44,9.4 -1.315,2.876 -2.402,5.378 -2.869,6.6 -0.168,0.44 -0.505,1.25 -0.748,1.8 -1.317,2.976 -5.07,13.936 -6.437,18.8 -0.278,0.99 -0.668,2.113 -0.867,2.495 -0.199,0.382 -0.361,1.226 -0.361,1.876 0,0.65 -0.161,1.281 -0.358,1.403 -0.197,0.121 -0.452,0.897 -0.567,1.723 -0.115,0.827 -0.395,2.223 -0.621,3.103 -0.827,3.225 -1.674,6.854 -2.099,9 -1.077,5.439 -1.143,5.832 -2.316,13.8 -0.195,1.32 -0.64,5.19 -0.989,8.6 -0.35,3.41 -0.737,6.623 -0.862,7.14 -0.428,1.793 -0.286,34.206 0.171,38.66 1.483,14.491 2.243,20.772 3.212,26.6 0.201,1.21 0.558,3.37 0.792,4.8 0.235,1.43 0.701,3.86 1.037,5.4 0.334,1.54 0.803,3.79 1.04,5 0.239,1.21 0.605,3.01 0.815,4 0.21,0.99 0.541,2.61 0.738,3.6 0.195,0.99 0.54,2.52 0.763,3.4 0.223,0.88 0.575,2.32 0.778,3.2 0.204,0.88 0.681,2.68 1.058,4 0.376,1.32 0.836,3.03 1.019,3.8 0.184,0.77 0.511,2.03 0.728,2.8 0.215,0.77 0.682,2.48 1.038,3.8 0.731,2.715 3.34,11.184 3.821,12.4 0.174,0.44 0.677,1.97 1.119,3.4 0.804,2.602 1.923,5.897 2.515,7.4 0.173,0.44 0.702,1.97 1.174,3.4 0.472,1.43 1.094,3.14 1.381,3.8 0.287,0.66 0.917,2.37 1.4,3.8 0.483,1.43 1.116,3.14 1.405,3.8 0.29,0.66 1.286,3.09 2.215,5.4 0.928,2.31 1.922,4.74 2.209,5.4 0.287,0.66 0.876,2.1 1.31,3.2 0.434,1.1 1.237,2.99 1.786,4.2 1.839,4.054 2.598,5.784 3.686,8.4 2.845,6.847 17.824,36.972 21.479,43.2 0.452,0.77 1.549,2.75 2.436,4.4 1.616,3.001 5.161,9.282 7.789,13.8 2.166,3.725 2.832,4.882 3.739,6.5 0.462,0.825 1.053,1.77 1.311,2.1 0.26,0.33 0.908,1.41 1.441,2.4 0.533,0.99 3.641,6.083 6.904,11.318 3.266,5.234 4.394,7.485 6.295,10.461 3.655,5.721 5.473,8.499 5.468,8.471 0,-0.028 8.902,-9.914 125.903,-145.843 0.068,-0.079 -9.77,-9.947 -9.77,-9.947 -5.836,-5.863 -12.047,-12.274 -13.803,-14.248 -1.755,-1.973 -5.001,-5.573 -7.213,-8 -3.44,-3.774 -13.704,-15.786 -19.151,-22.412 -1.599,-1.944 -5.592,-7.246 -11.298,-15 -2.274,-3.091 -12.573,-18.422 -14.396,-21.43 -7.572,-12.497 -15.966,-28.164 -19.7,-36.77 -0.955,-2.2 -2.054,-4.72 -2.443,-5.6 -3.451,-7.808 -6.991,-18.657 -10.506,-32.2 -0.771,-2.97 -1.607,-6.66 -1.858,-8.2 -0.252,-1.54 -0.63,-3.835 -0.842,-5.1 -0.211,-1.265 -0.554,-3.335 -0.762,-4.6 -1.438,-8.748 -1.941,-31.092 -0.894,-39.7 1.197,-9.83 1.804,-13.284 3.554,-20.2 9.51,-37.592 33.279,-70.572 66.534,-93.631 2.717,-1.884 5.834,-3.61 6.494,-3.974 0.66,-0.365 2.725,-1.631 4.155,-2.535 6.616,-4.182 21.978,-11.083 24.303,-11.87 0.971,-0.416 2.767,-1.044 3.559,-1.303 3.053,-0.998 -2.45,0.152 -3.233,0.247"
       fill-rule="evenodd"
       id="path13-2"
       style="fill-opacity:1" />
    <path
       d="m 1457.323,-163.427 c -8.662,0.594 -27.783,4.645 -34.905,6.658 -7.125,2.014 -24.671,7.629 -33.067,10.761 -10.388,3.877 -22.99,9.968 -29.318,13.42 -5.597,3.053 -21.769,12.332 -22.847,12.994 -1.092,0.659 -11.761,7.667 -16.483,11.426 -4.71,3.75 -10.366,8.187 -12.023,9.571 -7.212,6.048 -9.585,8.075 -10.82,9.265 -0.806,0.779 -2.982,2.776 -4.815,4.458 -3.857,3.507 -12.68,12.912 -15.632,16.648 -1.105,1.398 -2.597,3.225 -3.316,4.059 -3.042,3.548 -15.57,20.989 -17.776,24.745 -3.985,6.787 -11.569,21.503 -11.495,22.299 0.015,0.151 -0.191,0.594 -0.438,0.982 -0.263,0.389 -0.597,1.032 -0.756,1.431 -0.155,0.391 -0.77,1.896 -1.352,3.334 -1.949,4.741 -2.456,6.114 -4.895,13.305 -0.74,2.175 -1.036,3.152 -2.731,8.945 -0.8,2.733 -1.454,5.11 -1.717,6.275 -0.107,0.413 -0.301,1.187 -0.441,1.702 -0.803,2.834 -2.854,13.22 -3.526,17.818 -0.14,0.939 -0.355,2.003 -0.474,2.366 -0.132,0.364 -0.182,1.16 -0.134,1.77 0.053,0.61 -0.018,1.204 -0.171,1.324 -0.143,0.121 -0.277,0.856 -0.292,1.633 -0.027,0.785 -0.129,2.101 -0.236,2.93 -0.379,3.044 -0.74,6.472 -0.904,8.499 -0.388,5.129 -0.403,5.498 -0.66,13.001 -0.045,1.242 -0.069,4.888 -0.057,8.089 0.01,3.209 -0.024,6.234 -0.074,6.721 -0.194,1.69 2.686,32.064 3.432,36.23 2.424,13.533 3.561,19.403 4.83,24.83 0.263,1.13 0.734,3.143 1.042,4.475 0.31,1.338 0.889,3.597 1.286,5.028 0.397,1.439 0.964,3.537 1.257,4.655 0.295,1.127 0.734,2.804 0.997,3.726 0.244,0.922 0.641,2.435 0.883,3.351 0.248,0.922 0.654,2.35 0.905,3.165 0.247,0.815 0.653,2.158 0.889,2.973 0.239,0.824 0.776,2.495 1.182,3.718 0.409,1.225 0.929,2.814 1.138,3.531 0.217,0.717 0.582,1.89 0.82,2.601 0.236,0.717 0.753,2.306 1.15,3.535 0.814,2.524 3.611,10.378 4.11,11.502 0.17,0.408 0.698,1.827 1.176,3.154 0.86,2.413 2.033,5.471 2.633,6.855 0.179,0.408 0.728,1.827 1.229,3.154 0.496,1.327 1.135,2.91 1.415,3.52 0.293,0.608 0.932,2.194 1.439,3.521 0.507,1.329 1.164,2.91 1.451,3.523 0.283,0.607 1.283,2.856 2.22,4.989 0.935,2.137 1.941,4.388 2.221,4.998 0.284,0.61 0.881,1.942 1.32,2.96 0.438,1.015 1.235,2.76 1.782,3.879 1.811,3.747 2.558,5.345 3.641,7.76 2.857,6.333 13.061,27.053 15.943,32.533 2.882,5.48 37.85,64.156 43.368,69.925 0.594,0.621 0.382,0.476 0.906,-0.134 7.133,-8.308 74.307,-86.48 74.307,-86.48 0,0 -37.985,-40.02 -57.596,-69.261 -10.889,-16.243 -25.492,-41.434 -31.097,-52.392 -6.11,-11.94 -14,-32.776 -17.352,-42.265 -5.683,-16.092 -8.474,-30.177 -10.587,-50.096 -2.114,-19.92 -2.516,-42.126 6.11,-70.864 10.707,-35.673 31.754,-65.781 56.149,-88.507 5.973,-5.564 17.546,-13.634 23.08,-16.968 5.567,-3.354 15.232,-9.084 24.921,-13.439 7.606,-3.419 19.456,-8.234 26.757,-10.712 15.226,-5.162 32.079,-9.418 31.998,-9.402 z"
       fill-rule="evenodd"
       id="path13"
       style="display:inline;fill:#0f4582;stroke-width:1.21521" />
  </g>
</svg>

<?xml version="1.0" encoding="utf-8"?>
<svg viewBox="0 0 210 297" xmlns="http://www.w3.org/2000/svg" xmlns:bx="https://boxy-svg.com">
  <ellipse style="fill-opacity: 1; fill: rgb(0, 0, 0); opacity: 1;" cx="95.789" cy="245.598" rx="48.716" ry="7.044" id="ellipse835"/>
  <g transform="matrix(0.893764, 0, 0, 0.875522, 3.918587, 31.208363)" id="g845" style="fill: rgb(0, 113, 170); fill-opacity: 1;">
    <circle style="fill:#0071aa;fill-opacity:1" cx="98.035004" cy="110.688" r="35.630001" transform="matrix(1.88209,0,0,1.925813,-80.914154,-86.197372)" id="circle841"/>
    <path style="fill: rgb(0, 113, 170); fill-opacity: 1; paint-order: stroke; stroke: rgb(0, 113, 170);" d="m 50.135,167.533 52.685,74.582 55.139,-75.826" id="path843"/>
  </g>
  <ellipse style="fill: rgb(255, 255, 255); stroke-width: 1.19951; paint-order: fill;" cx="96.016" cy="143.437" id="circle847" rx="38.979" ry="38.312"/>
  <g>
    <path d="M 141.116 43.818 C 141.119 43.936 142.051 45.211 143.016 46.418 C 144.08 47.748 147.599 52.35 147.821 52.701 C 148.088 53.124 147.951 56.383 147.284 65.47 C 147.169 67.041 147.158 67.864 147.251 67.9 C 147.366 67.944 150.862 65.123 155.365 61.352 C 155.792 60.994 157.633 59.472 159.457 57.97 C 161.281 56.467 162.932 55.097 163.126 54.926 C 163.32 54.755 163.923 54.254 164.466 53.814 C 166.504 52.161 168.843 50.234 168.912 50.15 C 168.95 50.102 169.731 49.451 170.647 48.703 C 172.821 46.927 172.895 47.022 169.053 46.643 C 168.16 46.555 166.89 46.423 166.231 46.351 C 163.446 46.045 160.706 45.751 159.387 45.617 C 157.505 45.425 155.434 45.206 153.883 45.035 C 153.185 44.958 151.915 44.824 151.061 44.738 C 150.207 44.651 148.652 44.485 147.604 44.369 C 142.159 43.765 141.113 43.676 141.116 43.818" fill-rule="evenodd" stroke-width="0.99577" id="path17" style="fill-opacity: 1;"/>
    <path d="M 14.877 -0.664 L 23.962 6.801 L 5.829 6.801 L 14.877 -0.664 Z" style="fill: rgb(255, 255, 255);" transform="matrix(0.976375, -0.216081, 1.912328, 0.60098, 132.299377, 49.261326)" bx:shape="triangle 5.829 -0.664 18.133 7.465 0.499 0 1@9ae2b8bd" bx:origin="0.457 0.493"/>
  </g>
  <g transform="matrix(0.315494, 0, 0, 0.365575, -323.846497, 116.888664)" fill="#ef7524" id="g15-0" style="fill: rgb(239, 117, 36); fill-opacity: 1; mix-blend-mode: normal;">
    <path d="M 1455.732 -163.381 C 1452.666 -162.884 1447.914 -162.015 1445.902 -161.52 C 1432.4 -158.197 1423.513 -154.661 1418.611 -152.501 C 1418.171 -152.308 1415.561 -151.221 1412.811 -150.088 C 1410.061 -148.954 1406.641 -147.488 1405.212 -146.829 C 1403.781 -146.171 1400.991 -144.917 1399.011 -144.043 C 1395.76 -142.608 1381.989 -135.63 1381.011 -134.923 C 1380.791 -134.764 1379.442 -133.999 1378.011 -133.223 C 1371.464 -129.672 1369.435 -128.526 1367.212 -127.12 C 1357.497 -120.981 1354.301 -118.922 1352.612 -117.708 C 1351.512 -116.917 1348.572 -114.874 1346.079 -113.166 C 1340.865 -109.594 1328.74 -99.949 1324.617 -96.094 C 1323.074 -94.651 1321.002 -92.769 1320.012 -91.911 C 1315.803 -88.263 1298.131 -70.221 1294.944 -66.317 C 1289.185 -59.264 1278.012 -43.923 1278.012 -43.071 C 1278.012 -42.911 1277.713 -42.45 1277.348 -42.046 C 1276.982 -41.642 1276.487 -40.973 1276.248 -40.56 C 1276.008 -40.146 1275.071 -38.573 1274.166 -37.063 C 1271.196 -32.108 1270.404 -30.661 1266.534 -23.117 C 1265.364 -20.836 1264.878 -19.808 1262.094 -13.717 C 1260.779 -10.841 1259.692 -8.339 1259.225 -7.117 C 1259.057 -6.677 1258.72 -5.867 1258.477 -5.317 C 1257.16 -2.341 1253.407 8.619 1252.04 13.483 C 1251.762 14.473 1251.372 15.596 1251.173 15.978 C 1250.974 16.36 1250.812 17.204 1250.812 17.854 C 1250.812 18.504 1250.651 19.135 1250.454 19.257 C 1250.257 19.378 1250.002 20.154 1249.887 20.98 C 1249.772 21.807 1249.492 23.203 1249.266 24.083 C 1248.439 27.308 1247.592 30.937 1247.167 33.083 C 1246.09 38.522 1246.024 38.915 1244.851 46.883 C 1244.656 48.203 1244.211 52.073 1243.862 55.483 C 1243.512 58.893 1243.125 62.106 1243 62.623 C 1242.572 64.416 1242.714 96.829 1243.171 101.283 C 1244.654 115.774 1245.414 122.055 1246.383 127.883 C 1246.584 129.093 1246.941 131.253 1247.175 132.683 C 1247.41 134.113 1247.876 136.543 1248.212 138.083 C 1248.546 139.623 1249.015 141.873 1249.252 143.083 C 1249.491 144.293 1249.857 146.093 1250.067 147.083 C 1250.277 148.073 1250.608 149.693 1250.805 150.683 C 1251 151.673 1251.345 153.203 1251.568 154.083 C 1251.791 154.963 1252.143 156.403 1252.346 157.283 C 1252.55 158.163 1253.027 159.963 1253.404 161.283 C 1253.78 162.603 1254.24 164.313 1254.423 165.083 C 1254.607 165.853 1254.934 167.113 1255.151 167.883 C 1255.366 168.653 1255.833 170.363 1256.189 171.683 C 1256.92 174.398 1259.529 182.867 1260.01 184.083 C 1260.184 184.523 1260.687 186.053 1261.129 187.483 C 1261.933 190.085 1263.052 193.38 1263.644 194.883 C 1263.817 195.323 1264.346 196.853 1264.818 198.283 C 1265.29 199.713 1265.912 201.423 1266.199 202.083 C 1266.486 202.743 1267.116 204.453 1267.599 205.883 C 1268.082 207.313 1268.715 209.023 1269.004 209.683 C 1269.294 210.343 1270.29 212.773 1271.219 215.083 C 1272.147 217.393 1273.141 219.823 1273.428 220.483 C 1273.715 221.143 1274.304 222.583 1274.738 223.683 C 1275.172 224.783 1275.975 226.673 1276.524 227.883 C 1278.363 231.937 1279.122 233.667 1280.21 236.283 C 1283.055 243.13 1298.034 273.255 1301.689 279.483 C 1302.141 280.253 1303.238 282.233 1304.125 283.883 C 1305.741 286.884 1309.286 293.165 1311.914 297.683 C 1314.08 301.408 1314.746 302.565 1315.653 304.183 C 1316.115 305.008 1316.706 305.953 1316.964 306.283 C 1317.224 306.613 1317.872 307.693 1318.405 308.683 C 1318.938 309.673 1322.046 314.766 1325.309 320.001 C 1328.575 325.235 1329.703 327.486 1331.604 330.462 C 1335.259 336.183 1337.077 338.961 1337.072 338.933 C 1337.067 338.905 1345.974 329.019 1462.975 193.09 C 1463.043 193.011 1453.205 183.143 1453.205 183.143 C 1447.369 177.28 1441.158 170.869 1439.402 168.895 C 1437.647 166.922 1434.401 163.322 1432.189 160.895 C 1428.749 157.121 1418.485 145.109 1413.038 138.483 C 1411.439 136.539 1407.446 131.237 1401.74 123.483 C 1399.466 120.392 1389.167 105.061 1387.344 102.053 C 1379.772 89.556 1371.378 73.889 1367.644 65.283 C 1366.689 63.083 1365.59 60.563 1365.201 59.683 C 1361.75 51.875 1358.21 41.026 1354.695 27.483 C 1353.924 24.513 1353.088 20.823 1352.837 19.283 C 1352.585 17.743 1352.207 15.448 1351.995 14.183 C 1351.784 12.918 1351.441 10.848 1351.233 9.583 C 1349.795 0.835 1349.292 -21.509 1350.339 -30.117 C 1351.536 -39.947 1352.143 -43.401 1353.893 -50.317 C 1363.403 -87.909 1387.172 -120.889 1420.427 -143.948 C 1423.144 -145.832 1426.261 -147.558 1426.921 -147.922 C 1427.581 -148.287 1429.646 -149.553 1431.076 -150.457 C 1437.692 -154.639 1453.054 -161.54 1455.379 -162.327 C 1456.35 -162.743 1458.146 -163.371 1458.938 -163.63 C 1461.991 -164.628 1456.488 -163.478 1455.705 -163.383" fill-rule="evenodd" id="path13-2" style="fill-opacity: 1;"/>
    <path d="M 1457.323 -163.427 C 1448.661 -162.833 1429.54 -158.782 1422.418 -156.769 C 1415.293 -154.755 1397.747 -149.14 1389.351 -146.008 C 1378.963 -142.131 1366.361 -136.04 1360.033 -132.588 C 1354.436 -129.535 1338.264 -120.256 1337.186 -119.594 C 1336.094 -118.935 1325.425 -111.927 1320.703 -108.168 C 1315.993 -104.418 1310.337 -99.981 1308.68 -98.597 C 1301.468 -92.549 1299.095 -90.522 1297.86 -89.332 C 1297.054 -88.553 1294.878 -86.556 1293.045 -84.874 C 1289.188 -81.367 1280.365 -71.962 1277.413 -68.226 C 1276.308 -66.828 1274.816 -65.001 1274.097 -64.167 C 1271.055 -60.619 1258.527 -43.178 1256.321 -39.422 C 1252.336 -32.635 1244.752 -17.919 1244.826 -17.123 C 1244.841 -16.972 1244.635 -16.529 1244.388 -16.141 C 1244.125 -15.752 1243.791 -15.109 1243.632 -14.71 C 1243.477 -14.319 1242.862 -12.814 1242.28 -11.376 C 1240.331 -6.635 1239.824 -5.262 1237.385 1.929 C 1236.645 4.104 1236.349 5.081 1234.654 10.874 C 1233.854 13.607 1233.2 15.984 1232.937 17.149 C 1232.83 17.562 1232.636 18.336 1232.496 18.851 C 1231.693 21.685 1229.642 32.071 1228.97 36.669 C 1228.83 37.608 1228.615 38.672 1228.496 39.035 C 1228.364 39.399 1228.314 40.195 1228.362 40.805 C 1228.415 41.415 1228.344 42.009 1228.191 42.129 C 1228.048 42.25 1227.914 42.985 1227.899 43.762 C 1227.872 44.547 1227.77 45.863 1227.663 46.692 C 1227.284 49.736 1226.923 53.164 1226.759 55.191 C 1226.371 60.32 1226.356 60.689 1226.099 68.192 C 1226.054 69.434 1226.03 73.08 1226.042 76.281 C 1226.051 79.49 1226.018 82.515 1225.968 83.002 C 1225.774 84.692 1228.654 115.066 1229.4 119.232 C 1231.824 132.765 1232.961 138.635 1234.23 144.062 C 1234.493 145.192 1234.964 147.205 1235.272 148.537 C 1235.582 149.875 1236.161 152.134 1236.558 153.565 C 1236.955 155.004 1237.522 157.102 1237.815 158.22 C 1238.11 159.347 1238.549 161.024 1238.812 161.946 C 1239.056 162.868 1239.453 164.381 1239.695 165.297 C 1239.943 166.219 1240.349 167.647 1240.6 168.462 C 1240.847 169.277 1241.253 170.62 1241.489 171.435 C 1241.728 172.259 1242.265 173.93 1242.671 175.153 C 1243.08 176.378 1243.6 177.967 1243.809 178.684 C 1244.026 179.401 1244.391 180.574 1244.629 181.285 C 1244.865 182.002 1245.382 183.591 1245.779 184.82 C 1246.593 187.344 1249.39 195.198 1249.889 196.322 C 1250.059 196.73 1250.587 198.149 1251.065 199.476 C 1251.925 201.889 1253.098 204.947 1253.698 206.331 C 1253.877 206.739 1254.426 208.158 1254.927 209.485 C 1255.423 210.812 1256.062 212.395 1256.342 213.005 C 1256.635 213.613 1257.274 215.199 1257.781 216.526 C 1258.288 217.855 1258.945 219.436 1259.232 220.049 C 1259.515 220.656 1260.515 222.905 1261.452 225.038 C 1262.387 227.175 1263.393 229.426 1263.673 230.036 C 1263.957 230.646 1264.554 231.978 1264.993 232.996 C 1265.431 234.011 1266.228 235.756 1266.775 236.875 C 1268.586 240.622 1269.333 242.22 1270.416 244.635 C 1273.273 250.968 1283.477 271.688 1286.359 277.168 C 1289.241 282.648 1324.209 341.324 1329.727 347.093 C 1330.321 347.714 1330.109 347.569 1330.633 346.959 C 1337.766 338.651 1404.94 260.479 1404.94 260.479 C 1404.94 260.479 1366.955 220.459 1347.344 191.218 C 1336.455 174.975 1321.852 149.784 1316.247 138.826 C 1310.137 126.886 1302.247 106.05 1298.895 96.561 C 1293.212 80.469 1290.421 66.384 1288.308 46.465 C 1286.194 26.545 1285.792 4.339 1294.418 -24.399 C 1305.125 -60.072 1326.172 -90.18 1350.567 -112.906 C 1356.54 -118.47 1368.113 -126.54 1373.647 -129.874 C 1379.214 -133.228 1388.879 -138.958 1398.568 -143.313 C 1406.174 -146.732 1418.024 -151.547 1425.325 -154.025 C 1440.551 -159.187 1457.404 -163.443 1457.323 -163.427 Z" fill-rule="evenodd" id="path13" style="display: inline; stroke-width: 1.21521; fill: rgb(15, 69, 130);"/>
  </g>
</svg>
